nuxtjs.org/static/img/home/explore/dark/landscape-explore.svg

<svg width="1440" height="147" fill="none" xmlns="http://www.w3.org/2000/svg"><path d="M498.48 122.787h25.77l25.421-3.522 37.311-6.349s28.748-2.915 28.748-3.903c4.039-2.833 15.495-.307 23.306 1.415h.001c4.163.918 7.29 1.607 7.707 1.136.505-.571 2.623-1.578 5.34-2.551h16.064c6.27-.302 19.175 0 19.175 0h13.061l26.753 5.779s32.202 7.217 50.775 11.406c8.18 1.845 17.552 2.039 25.468-.16.556-.154 1.116-.311 1.676-.468 5.46-1.53 12.321-2.142 12.321-2.142l28.948-1.133 20.833-3.474 35.271-3.25 9.479 1.213 8.791-1.836 11.676-5.59 4.69-2.791 34.634 1.878 34.311 2.818 10.98 1.319s3.27-.853 5.09-1.319l5.12-.556c2.09-.35 14.27-1.768 14.27-1.768l15.61 1.768 37.89-8.508 28.43 5.197c5.9 0 12.07 0 20.36.299l48.96 9.463 10.3-1.497 17.84.759 2.24-3.013s8.61-1.852 12.11-1.852c1.31 0 4.17-.118 7.71-.265 10.38-.429 26.57.265 26.57.265l.61.079c14.06 1.817 14.06 1.817 21 1.817l20.66.839c10.62 5.52 29.73 12.623 61.08 18.99L1413.3 147h21.91l4.79-1.928V0H0l.00075077 101.769L103.792 103.806l45.829 3.125 10.719-3.125 104.302 9.11 30.16 2.681 19.332-.805 31.766 1.521 35.244 2.952h25.633l44.845 11.645 3.471-2.849 43.387-5.274z" fill="#00181F"/></svg>

<svg width="1440" height="147"  fill="none" xmlns="http://www.w3.org/2000/svg">
<path d="M498.48 122.787H524.25L549.671 119.265L586.982 112.916C586.982 112.916 615.73 110.001 615.73 109.013C619.769 106.18 631.225 108.706 639.036 110.428L639.037 110.428C643.2 111.346 646.327 112.035 646.744 111.564C647.249 110.993 649.367 109.986 652.084 109.013H668.148C674.418 108.711 687.323 109.013 687.323 109.013H700.384L727.137 114.792C727.137 114.792 759.339 122.009 777.912 126.198C786.092 128.043 795.464 128.237 803.38 126.038C803.936 125.884 804.496 125.727 805.056 125.57C810.516 124.04 817.377 123.428 817.377 123.428L846.325 122.295L867.158 118.821L902.429 115.571L911.908 116.784L920.699 114.948L932.375 109.358L937.065 106.567L971.699 108.445L1006.01 111.263L1016.99 112.582C1016.99 112.582 1020.26 111.729 1022.08 111.263L1027.2 110.707C1029.29 110.357 1041.47 108.939 1041.47 108.939L1057.08 110.707L1094.97 102.199L1123.4 107.396C1129.3 107.396 1135.47 107.396 1143.76 107.695L1192.72 117.158L1203.02 115.661L1220.86 116.42L1223.1 113.407C1223.1 113.407 1231.71 111.555 1235.21 111.555C1236.52 111.555 1239.38 111.437 1242.92 111.29C1253.3 110.861 1269.49 111.555 1269.49 111.555L1270.1 111.634C1284.16 113.451 1284.16 113.451 1291.1 113.451L1311.76 114.29C1322.38 119.81 1341.49 126.913 1372.84 133.28L1413.3 147H1435.21L1440 145.072V0H0L0.000750775 101.769L103.792 103.806L149.621 106.931L160.34 103.806L264.642 112.916L294.802 115.597L314.134 114.792L345.9 116.313L381.144 119.265H406.777L451.622 130.91L455.093 128.061L498.48 122.787Z" fill="#012A35"/>
</svg>
